twitter.svg

<svg viewBox="0 0 24 24" xmlns="http://www.w3.org/2000/svg"><path d="M21.543 7.10409C21.5576 7.31567 21.5576 7.52725 21.5576 7.74077C21.5576 14.2471 16.6045 21.7508 7.54759 21.7508L7.54759 21.7469C4.87215 21.7508 2.25229 20.9844 0 19.5394C0.389031 19.5862 0.780012 19.6096 1.17197 19.6106C3.38915 19.6126 5.54296 18.8686 7.28726 17.4987C5.18026 17.4588 3.3326 16.085 2.68714 14.0793C3.42523 14.2217 4.18574 14.1924 4.91018 13.9945C2.61304 13.5304 0.96039 11.5121 0.96039 9.1682C0.96039 9.14675 0.96039 9.12627 0.96039 9.1058C1.64485 9.48703 2.41121 9.6986 3.19513 9.722C1.03157 8.27606 0.364656 5.39781 1.67118 3.14748C4.17112 6.22365 7.8596 8.09373 11.8191 8.29166C11.4223 6.58148 11.9644 4.7894 13.2436 3.58721C15.2268 1.72298 18.3459 1.81853 20.2101 3.80074C21.3129 3.58331 22.3698 3.17868 23.337 2.60537C22.9694 3.74516 22.2001 4.71335 21.1725 5.32859C22.1484 5.21353 23.102 4.95223 24 4.55345C23.3389 5.54406 22.5063 6.40695 21.543 7.10409Z" fill="#1d9bf0"/></svg>

<svg viewBox="0 0 24 24" xmlns="http://www.w3.org/2000/svg"><path d="M21.543 7.104c.015.212.015.423.015.637 0 6.506-4.953 14.01-14.01 14.01v-.004A13.94 13.94 0 0 1 0 19.539a9.887 9.887 0 0 0 7.287-2.04 4.93 4.93 0 0 1-4.6-3.42 4.908 4.908 0 0 0 2.223-.085A4.924 4.924 0 0 1 .96 9.169v-.062c.685.381 1.451.593 2.235.616a4.93 4.93 0 0 1-1.524-6.575A13.975 13.975 0 0 0 11.82 8.292a4.93 4.93 0 0 1 8.391-4.49 9.88 9.88 0 0 0 3.127-1.197 4.943 4.943 0 0 1-2.165 2.724A9.793 9.793 0 0 0 24 4.553a10.004 10.004 0 0 1-2.457 2.551Z" fill="#1d9bf0"/></svg>
